
setcpm(140/4)

// sounds
const bd = s("bd * 4").bank("tr909").dec(0.9).lpf(60).attack(0.2).room(2.0)
const hh = s("hh * 4").bank("tr909").dec(4.0).gain(0.1).lpf(12000).hpf(6000).room(0.2).delay("<0.5 0 0.25 0>")

// scenes
stack(
  bd,
  hh
)
